packages/kaspersky-hexa-ui-icons/src/iconsSVGs/24/Settings21.svg

<svg width="24" height="24" viewBox="0 0 24 24" fill="none" xmlns="http://www.w3.org/2000/svg">
<path fill-rule="evenodd" clip-rule="evenodd" d="M11.8413 7.98721C9.6252 7.98721 7.82868 9.78373 7.82868 11.9998C7.82868 14.216 9.6252 16.0125 11.8413 16.0125C14.0574 16.0125 15.8539 14.216 15.8539 11.9998C15.8539 9.78373 14.0574 7.98721 11.8413 7.98721ZM9.82868 11.9998C9.82868 10.8883 10.7298 9.98721 11.8413 9.98721C12.9529 9.98721 13.8539 10.8883 13.8539 11.9998C13.8539 13.1114 12.9529 14.0125 11.8413 14.0125C10.7298 14.0125 9.82868 13.1114 9.82868 11.9998Z" fill="black"/>
<path fill-rule="evenodd" clip-rule="evenodd" d="M10.2177 2C9.71786 2 9.2948 2.36903 9.22693 2.8642L8.93321 5.00715C8.32453 5.26054 7.75639 5.59086 7.24088 5.98572L5.23562 5.16863C4.77292 4.9801 4.24207 5.16201 3.99225 5.59471L2.36891 8.40642C2.119 8.83927 2.22706 9.39016 2.62196 9.69653L4.33231 11.0234C4.29106 11.3434 4.26984 11.6693 4.26984 11.9997C4.26984 12.3307 4.29113 12.657 4.33249 12.9774L2.62316 14.3048C2.22854 14.6112 2.12065 15.1619 2.37047 15.5946L3.99381 18.4063C4.24372 18.8392 4.77483 19.021 5.2376 18.8322L7.24183 18.0145C7.75707 18.409 8.32485 18.7391 8.93313 18.9923L9.22693 21.1358C9.2948 21.631 9.71786 22 10.2177 22H13.4644C13.964 22 14.387 21.6312 14.455 21.1362L14.7499 18.9921C15.3581 18.7389 15.9257 18.4089 16.4409 18.0144L18.4456 18.8324C18.9084 19.0212 19.4395 18.8393 19.6894 18.4065L21.3128 15.5947C21.5626 15.162 21.4547 14.6114 21.0601 14.3049L19.3502 12.9771C19.3915 12.6568 19.4128 12.3306 19.4128 11.9997C19.4128 11.6694 19.3916 11.3436 19.3504 11.0237L21.0613 9.69637C21.4562 9.39001 21.5643 8.83912 21.3144 8.40627L19.691 5.59455C19.4412 5.16186 18.9104 4.97995 18.4477 5.16848L16.4419 5.98579C15.9264 5.59098 15.3584 5.2607 14.7498 5.00731L14.455 2.86376C14.387 2.36878 13.964 2 13.4644 2H10.2177ZM11.09 4H12.5925L12.9361 6.499L13.5369 6.69069C14.3067 6.93628 15.0048 7.3453 15.5901 7.87799L16.0565 8.30248L18.3949 7.34963L19.1462 8.65085L17.1529 10.1973L17.2864 10.813C17.3691 11.1945 17.4128 11.5915 17.4128 11.9997C17.4128 12.4083 17.369 12.8055 17.2862 13.1873L17.1526 13.8029L19.1448 15.3498L18.3935 16.651L16.0562 15.6974L15.5895 16.122C15.0044 16.6544 14.3065 17.0632 13.537 17.3088L12.9362 17.5005L12.5925 20H11.09L10.7474 17.5007L10.1462 17.3089C9.37653 17.0635 8.67846 16.6546 8.09317 16.122L7.62654 15.6975L5.28972 16.6509L4.53846 15.3497L6.53007 13.8031L6.39652 13.1876C6.31367 12.8057 6.26984 12.4084 6.26984 11.9997C6.26984 11.5914 6.3136 11.1944 6.39634 10.8127L6.52983 10.197L4.5371 8.651L5.28836 7.34978L7.62623 8.3024L8.09264 7.87792C8.67806 7.34513 9.37634 6.93607 10.1463 6.6905L10.7475 6.49876L11.09 4Z" fill="black"/>
</svg>

<svg xmlns="http://www.w3.org/2000/svg" width="24" height="24" fill="none" viewBox="0 0 24 24"><path fill="#000" fill-rule="evenodd" d="M11.8413 7.9872c-2.2161 0-4.0126 1.7965-4.0126 4.0126 0 2.2162 1.7965 4.0127 4.0126 4.0127s4.0126-1.7965 4.0126-4.0127c0-2.216-1.7965-4.0126-4.0126-4.0126m-2.0126 4.0126c0-1.1115.9011-2.0126 2.0126-2.0126s2.0126.9011 2.0126 2.0126-.901 2.0127-2.0126 2.0127-2.0126-.9011-2.0126-2.0127" clip-rule="evenodd"/><path fill="#000" fill-rule="evenodd" d="M10.2177 2a1 1 0 0 0-.9908.8642l-.2937 2.143a7.56 7.56 0 0 0-1.6923.9785l-2.0053-.817a1 1 0 0 0-1.2433.426L2.3689 8.4064a1 1 0 0 0 .253 1.2901l1.7104 1.3269a7.6 7.6 0 0 0-.0625.9763c0 .331.0213.6573.0627.9777l-1.7093 1.3274a1 1 0 0 0-.2527 1.2898l1.6233 2.8117a1 1 0 0 0 1.2438.4259l2.0042-.8177a7.56 7.56 0 0 0 1.6913.9778l.2938 2.1435a1 1 0 0 0 .9908.8642h3.2467a1 1 0 0 0 .9906-.8638l.2949-2.1441a7.56 7.56 0 0 0 1.691-.9777l2.0047.818a1 1 0 0 0 1.2438-.4259l1.6234-2.8118a1 1 0 0 0-.2527-1.2898l-1.7099-1.3278a7.6 7.6 0 0 0 .0626-.9774c0-.3303-.0212-.6561-.0624-.976l1.7109-1.3273a1 1 0 0 0 .2531-1.2901L19.691 5.5946a1 1 0 0 0-1.2433-.4261l-2.0058.8173a7.57 7.57 0 0 0-1.6921-.9785l-.2948-2.1435A1 1 0 0 0 13.4644 2zm.8723 2h1.5025l.3436 2.499.6008.1917a5.56 5.56 0 0 1 2.0532 1.1873l.4664.4245 2.3384-.9529.7513 1.3013-1.9933 1.5464.1335.6157c.0827.3815.1264.7785.1264 1.1867 0 .4086-.0438.8058-.1266 1.1876l-.1336.6156 1.9922 1.5469-.7513 1.3012-2.3373-.9536-.4667.4246a5.565 5.565 0 0 1-2.0525 1.1868l-.6008.1917L12.5925 20H11.09l-.3426-2.4993-.6012-.1918a5.56 5.56 0 0 1-2.053-1.1869l-.4667-.4245-2.3368.9534-.7512-1.3012L6.53 13.8031l-.1336-.6155a5.6 5.6 0 0 1-.1267-1.1879c0-.4083.0438-.8053.1265-1.187l.1335-.6157L4.537 8.651l.7513-1.3012 2.3378.9526.4664-.4245a5.56 5.56 0 0 1 2.0537-1.1874l.6012-.1917z" clip-rule="evenodd"/></svg>
